X: 24947
T: Maid In The Cherry Tree, The
R: reel
M: 4/4
K: Adorian
gfa|eA~A2 eABA|GBde dBGB|eA~A2 eABA|GBdB BAfg|
(3ege dg e^cdB|GABG dGBd|cBAc ~B2ge|1 dBGB A2:|2 dBGB BAAB||
cdef gc~c2|gceg dBGB|cdef gceg|dBGB BAAB|
cGEG ~g3e|dedc BGBd|cBAc ~B2ge|1 dBGB BAAB:|2 dBGB A2||

